Gruvbox-Plus-Dark/actions/16/reconcile-finish.svg

<?xml version="1.0" encoding="UTF-8" standalone="no"?>
<svg
   width="16"
   height="16"
   version="1.1"
   viewBox="0 0 16 16"
   id="svg1"
   sodipodi:docname="reconcile-finish.svg"
   inkscape:version="1.3.2 (091e20ef0f, 2023-11-25, custom)"
   xmlns:inkscape="http://www.inkscape.org/namespaces/inkscape"
   xmlns:sodipodi="http://sodipodi.sourceforge.net/DTD/sodipodi-0.dtd"
   xmlns="http://www.w3.org/2000/svg"
   xmlns:svg="http://www.w3.org/2000/svg">
  <sodipodi:namedview
     id="namedview1"
     pagecolor="#ffffff"
     bordercolor="#666666"
     borderopacity="1.0"
     inkscape:showpageshadow="2"
     inkscape:pageopacity="0.0"
     inkscape:pagecheckerboard="0"
     inkscape:deskcolor="#d1d1d1"
     showgrid="true"
     inkscape:zoom="12.862138"
     inkscape:cx="5.247961"
     inkscape:cy="18.89266"
     inkscape:window-width="958"
     inkscape:window-height="629"
     inkscape:window-x="0"
     inkscape:window-y="451"
     inkscape:window-maximized="0"
     inkscape:current-layer="svg1">
    <inkscape:grid
       id="grid1"
       units="px"
       originx="0"
       originy="0"
       spacingx="1"
       spacingy="1"
       empcolor="#0099e5"
       empopacity="0.30196078"
       color="#0099e5"
       opacity="0.14901961"
       empspacing="5"
       dotted="false"
       gridanglex="30"
       gridanglez="30"
       visible="true" />
  </sodipodi:namedview>
  <defs
     id="defs1">
    <style
       type="text/css"
       id="style1">.ColorScheme-Text { color:#ebdbb2; } .ColorScheme-Highlight { color:#458588; }</style>
  </defs>
  <path
     id="path1"
     class="ColorScheme-Text"
     d="M 3.5 1 L 3.5 2 L 7 2 L 7 13 L 2.8320312 14 L 2.8320312 15 L 9.34375 15 L 7.515625 13.171875 L 9.0019531 11.685547 L 9.0019531 2.0039062 L 12.494141 2.0039062 L 10 8 C 10 9.3809986 11.119001 10.5 12.5 10.5 C 13.880999 10.5 15 9.3809986 15 8 L 12.496094 2 L 12.496094 1.0039062 L 3.5019531 1.0039062 L 3.5 1 z M 3.5 2 L 1.0039062 8 C 1.0039062 9.3809986 2.1229076 10.5 3.5039062 10.5 C 4.8849049 10.5 6.0039062 9.3809986 6.0039062 8 L 3.5 2 z M 3.5019531 4 L 5.1699219 8 L 1.8378906 8 L 3.5019531 4 z M 12.498047 4 L 14.166016 8 L 10.833984 8 L 12.498047 4 z M 14.585938 11.050781 L 12.464844 13.171875 L 11.050781 11.757812 L 9.6367188 13.171875 L 12.464844 16 L 16 12.464844 L 14.585938 11.050781 z "
     style="fill:#ebdbb2;fill-opacity:1" />
</svg>

<svg width="16" height="16" version="1.1" viewBox="0 0 16 16" xmlns="http://www.w3.org/2000/svg">
  <defs>
    <style type="text/css">.ColorScheme-Text { color:#ebdbb2; } .ColorScheme-Highlight { color:#458588; }</style>
  </defs>
  <path class="ColorScheme-Text" d="m3.5 1v1h3.5v11l-4.168 1v1h6.512l-1.828-1.828 1.486-1.486v-9.682h3.492l-2.494 5.996c0 1.381 1.119 2.5 2.5 2.5s2.5-1.119 2.5-2.5l-2.504-6v-0.9961h-8.994l-0.001953-0.003906zm0 1-2.496 6c0 1.381 1.119 2.5 2.5 2.5s2.5-1.119 2.5-2.5l-2.504-6zm0.001953 2 1.668 4h-3.332l1.664-4zm8.996 0 1.668 4h-3.332l1.664-4zm2.088 7.051-2.121 2.121-1.414-1.414-1.414 1.414 2.828 2.828 3.535-3.535-1.414-1.414z" fill="currentColor"/>
</svg>
